src/assets/icons/plus.svg

<svg width="16" height="16" viewBox="0 0 16 16" fill="none" xmlns="http://www.w3.org/2000/svg">
<g clip-path="url(#clip0_8874_15290)">
<path fill-rule="evenodd" clip-rule="evenodd" d="M7.78433 0.0248073C7.72125 0.0385189 7.62626 0.0728621 7.57325 0.10113C7.45072 0.166439 7.25252 0.36389 7.18813 0.484779C7.07621 0.694822 7.08222 0.500785 7.08222 3.91057V7.02716L3.96636 7.02747C0.538441 7.02782 0.711864 7.02217 0.487853 7.141C0.242457 7.27118 0.0534503 7.53798 0.0106268 7.81463C-0.0677698 8.32102 0.298938 8.80519 0.804615 8.86297C0.899403 8.8738 2.16175 8.88085 4.02143 8.88092L7.08222 8.88107V12.0436C7.08222 15.5037 7.07616 15.3051 7.18813 15.5152C7.26181 15.6535 7.45458 15.8391 7.59617 15.908C7.84329 16.0282 8.1567 16.0282 8.40382 15.908C8.54541 15.8391 8.73818 15.6535 8.81186 15.5152C8.92383 15.3051 8.91777 15.5037 8.91777 12.0436V8.88107L11.9786 8.88092C13.8382 8.88085 15.1006 8.8738 15.1954 8.86297C15.5926 8.81758 15.9207 8.50045 15.9882 8.09663C16.0671 7.62496 15.7442 7.15381 15.2738 7.05412C15.1686 7.03186 14.6692 7.02775 12.0336 7.02747L8.91777 7.02716V3.91057C8.91777 0.500785 8.92377 0.694822 8.81186 0.484779C8.74758 0.36411 8.54932 0.166475 8.42731 0.101442C8.24679 0.00520354 8.00647 -0.0234311 7.78433 0.0248073Z" fill="currentColor"/>
</g>
<defs>
<clipPath id="clip0_8874_15290">
<rect width="16" height="16" fill="white"/>
</clipPath>
</defs>
</svg>

<svg xmlns="http://www.w3.org/2000/svg" width="16" height="16" fill="none">
  <g clip-path="url(#a)">
    <path fill="currentColor" fill-rule="evenodd" d="M7.784.025a.984.984 0 0 0-.21.076 1.24 1.24 0 0 0-.386.384c-.112.21-.106.016-.106 3.426v3.116H3.966c-3.428 0-3.254-.005-3.478.114a.956.956 0 0 0-.477.674.92.92 0 0 0 .794 1.048c.094.01 1.357.018 3.216.018h3.061v3.163c0 3.46-.006 3.261.106 3.471.074.138.267.324.408.393.247.12.56.12.808 0a1.12 1.12 0 0 0 .408-.393c.112-.21.106-.011.106-3.471V8.88h3.06c1.86 0 3.123-.007 3.217-.018a.924.924 0 0 0 .793-.766.927.927 0 0 0-.714-1.043c-.105-.022-.605-.026-3.24-.027H8.918V3.911c0-3.41.006-3.216-.106-3.426A1.241 1.241 0 0 0 8.427.1a.969.969 0 0 0-.643-.076Z" clip-rule="evenodd"/>
  </g>
  <defs>
    <clipPath id="a">
      <path fill="#fff" d="M0 0h16v16H0z"/>
    </clipPath>
  </defs>
</svg>
